dist/svg/flag.svg

<svg width="16" height="16" viewBox="0 0 16 16" fill="rgb(34, 34, 34)" xmlns="http://www.w3.org/2000/svg"><title>flag</title><path d="M15 3C15 6.685 12.297 8.984 8 9C5.99 8.985 3 8 2 9V16H1V0.499999H1.85C2.367 0.377999 2.96 0.307999 3.57 0.307999C5.097 0.307999 6.521 0.747999 7.722 1.507L7.69 1.488C7.69 1.488 12.75 4.945 15 3Z" fill="rgb(34, 34, 34)" fill-opacity="1.00"/></svg>

<!-- Generated by Trend Micro Style Portal -->
<svg version="1.1" xmlns="http://www.w3.org/2000/svg" width="16" height="16" viewBox="0 0 16 16">
  <title>flag</title>
  <path fill="rgb(34,34,34)" d="M15 3c0 3.685-2.703 5.984-7 6-2.010-0.015-5-1-6 0v7h-1v-15.5h0.85c0.517-0.122 1.11-0.192 1.72-0.192 1.527 0 2.951 0.44 4.152 1.199l-0.032-0.019s5.060 3.457 7.31 1.512z"></path>
</svg>
